src/assets/imgs/icons/wallet/ic_leasing_reverse.svg

<?xml version="1.0" encoding="UTF-8"?>
<svg width="32px" height="32px" viewBox="0 0 32 32" version="1.1" xmlns="http://www.w3.org/2000/svg" xmlns:xlink="http://www.w3.org/1999/xlink">
    <!-- Generator: Sketch 52.5 (67469) - http://www.bohemiancoding.com/sketch -->
    <title>ic_incoming</title>
    <desc>Created with Sketch.</desc>
    <g id="Export" stroke="none" stroke-width="1" fill="none" fill-rule="evenodd">
        <g id="ic_incoming">
            <circle id="Oval-2" fill="#B3D9FF" cx="16" cy="16" r="16"></circle>
            <path d="M15.9751,6.9997 C12.0801,7.0017 8.6301,9.5207 7.4341,13.2357 C6.2381,16.9517 7.5681,21.0167 10.7271,23.3007 C10.8331,23.3817 10.9681,23.4157 11.1001,23.3957 C11.2321,23.3737 11.3501,23.3007 11.4261,23.1897 C11.5831,22.9657 11.5351,22.6557 11.3161,22.4897 C8.5161,20.4547 7.3411,16.8437 8.4081,13.5447 C9.4751,10.2467 12.5401,8.0127 16.0001,8.0127 C19.4591,8.0127 22.5241,10.2467 23.5911,13.5447 C24.6591,16.8437 23.4841,20.4547 20.6831,22.4897 C20.5761,22.5677 20.5041,22.6867 20.4841,22.8167 C20.4631,22.9487 20.4961,23.0827 20.5741,23.1897 C20.7391,23.4087 21.0481,23.4577 21.2721,23.3007 C24.4391,21.0117 25.7671,16.9337 24.5581,13.2127 C23.3491,9.4907 19.8791,6.9797 15.9751,6.9997 M16.3531,25.8577 L18.8531,23.3027 C19.0461,23.1047 19.0441,22.7877 18.8481,22.5937 C18.7501,22.4987 18.6231,22.4507 18.4971,22.4507 C18.3671,22.4507 18.2381,22.5007 18.1401,22.5997 L16.4971,24.2847 L16.4971,15.5007 C16.4971,15.2237 16.2731,15.0007 15.9971,15.0007 C15.7201,15.0007 15.4971,15.2237 15.4971,15.5007 L15.4971,24.2847 L13.8531,22.5997 C13.6581,22.4027 13.3421,22.4007 13.1451,22.5937 C12.9491,22.7877 12.9471,23.1047 13.1401,23.3027 L15.6401,25.8577 C15.8291,26.0487 16.1651,26.0487 16.3531,25.8577" id="Shape" fill="#FFFFFF"></path>
        </g>
    </g>
</svg>

<?xml version="1.0" encoding="utf-8"?>
<!-- Generator: Adobe Illustrator 23.0.1, SVG Export Plug-In . SVG Version: 6.00 Build 0)  -->
<svg version="1.1" id="图层_1" xmlns="http://www.w3.org/2000/svg" xmlns:xlink="http://www.w3.org/1999/xlink" x="0px" y="0px"
	 viewBox="0 0 32 32" style="enable-background:new 0 0 32 32;" xml:space="preserve">
<style type="text/css">
	.st0{fill-rule:evenodd;clip-rule:evenodd;fill:#52C1FF;}
	.st1{fill-rule:evenodd;clip-rule:evenodd;fill:#FFFFFF;}
</style>
<title>ic_incoming</title>
<desc>Created with Sketch.</desc>
<circle id="Oval-2" class="st0" cx="16" cy="16" r="16"/>
<path id="Shape" class="st1" d="M16,7c-3.9,0-7.3,2.5-8.5,6.2C6.2,17,7.6,21,10.7,23.3c0.1,0.1,0.2,0.1,0.4,0.1
	c0.1,0,0.2-0.1,0.3-0.2c0.2-0.2,0.1-0.5-0.1-0.7c-2.8-2-4-5.6-2.9-8.9C9.5,10.2,12.5,8,16,8s6.5,2.2,7.6,5.5s-0.1,6.9-2.9,8.9
	c-0.1,0.1-0.2,0.2-0.2,0.3c0,0.1,0,0.3,0.1,0.4c0.2,0.2,0.5,0.3,0.7,0.1c3.2-2.3,4.5-6.4,3.3-10.1C23.3,9.5,19.9,7,16,7 M16.4,25.9
	l2.5-2.6c0.2-0.2,0.2-0.5,0-0.7c-0.1-0.1-0.2-0.1-0.4-0.1c-0.1,0-0.3,0-0.4,0.1l-1.6,1.7v-8.8c0-0.3-0.2-0.5-0.5-0.5
	c-0.3,0-0.5,0.2-0.5,0.5v8.8l-1.6-1.7c-0.2-0.2-0.5-0.2-0.7,0s-0.2,0.5,0,0.7l2.5,2.6C15.8,26,16.2,26,16.4,25.9"/>
</svg>
